X:3
T: Fehér László
L:1/4
M:3/4
Q: "Parlando" 1/4=60
K:C
A/B/A/G/c/c/ | (B{/A}) A>z | 
HA/d/c/B/A/d/ | G<G z | 
HA/F/E/D/G/A/ | (G{/F}) F>z | 
C/C/D/E/F/(G/{/D}) | D<D z | 